polaris-icons/icons/newicons/CodeMajor.svg

<svg width="20" height="20" viewBox="0 0 20 20" fill="none" xmlns="http://www.w3.org/2000/svg">
<path d="M12.2212 4.95599C12.3349 4.55771 12.1043 4.1426 11.7061 4.02881C11.3078 3.91501 10.8927 4.14563 10.7789 4.54391L7.77887 15.0439C7.66507 15.4422 7.89569 15.8573 8.29397 15.9711C8.69225 16.0849 9.10736 15.8543 9.22115 15.456L12.2212 4.95599Z" fill="black"/>
<path d="M14.2413 13.8011C13.9369 13.5201 13.9179 13.0457 14.1989 12.7413L16.7293 10L14.1989 7.25871C13.9179 6.95434 13.9369 6.47985 14.2413 6.19889C14.5457 5.91794 15.0202 5.93692 15.3011 6.24129L18.3011 9.49129C18.5663 9.77858 18.5663 10.2214 18.3011 10.5087L15.3011 13.7587C15.0202 14.0631 14.5457 14.0821 14.2413 13.8011Z" fill="black"/>
<path d="M5.75871 6.1989C6.06307 6.47985 6.08205 6.95435 5.8011 7.25871L3.27068 10L5.8011 12.7413C6.08205 13.0457 6.06307 13.5202 5.75871 13.8011C5.45434 14.0821 4.97985 14.0631 4.69889 13.7587L1.69889 10.5087C1.4337 10.2214 1.4337 9.77859 1.69889 9.49129L4.69889 6.24129C4.97985 5.93693 5.45434 5.91795 5.75871 6.1989Z" fill="black"/>
</svg>

<svg viewBox="0 0 20 20" fill="none" xmlns="http://www.w3.org/2000/svg"><path d="M12.221 4.956a.75.75 0 0 0-1.442-.412l-3 10.5a.75.75 0 1 0 1.442.412l3-10.5Z" fill="#000"/><path d="M14.241 13.801a.75.75 0 0 1-.042-1.06l2.53-2.741-2.53-2.741a.75.75 0 1 1 1.102-1.018l3 3.25a.75.75 0 0 1 0 1.018l-3 3.25a.75.75 0 0 1-1.06.042Z" fill="#000"/><path d="M5.759 6.199a.75.75 0 0 1 .042 1.06l-2.53 2.741 2.53 2.741a.75.75 0 1 1-1.102 1.018l-3-3.25a.75.75 0 0 1 0-1.018l3-3.25a.75.75 0 0 1 1.06-.042Z" fill="#000"/></svg>
